/* XPM */
static char *close_inactive[] = {
/* columns rows colors chars-per-pixel */
"34 26 24 1 ",
"  c #98C5A4",
". c #98C6A4",
"X c #99C6A4",
"o c #99C7A4",
"O c #99C6A5",
"+ c #99C7A5",
"@ c #9AC7A5",
"# c #9BC7A7",
"$ c #9BC8A6",
"% c #9BC8A7",
"& c #9CC8A7",
"* c #9DC8A8",
"= c #9DC9A8",
"- c #9EC9A9",
"; c #9ECAA9",
": c #9FC9AA",
"> c #9FCAAA",
", c #A0CAAB",
"< c #B8D7C1",
"1 c #B8D8C1",
"2 c #BAD9C2",
"3 c #CEE5D4",
"4 c #CFE4D5",
"5 c #DFEDE3",
/* pixels */
"............o$=-::-=$X............",
"..........+*>>>>>>>>>>=+..........",
".........*>>>>>>>>>>>>>>*.........",
"....... *>>>>>>>>>>>>>>>>= .......",
".......=>>>>>>>>>>>>>>>>>>=.......",
"......*>>>>>>>>>>>>>>>>>>>>&......",
".....O>>>>>>>>>>>>>>>>>>>>>>+.....",
".....=>>>>>>>>>>>>>>>>>>>>>>=.....",
"....X>>>>>>>>,>>>>>>,>>>>>>>>X....",
"....$>>>>>>>,41>>>>14,>>>>>>>%....",
"....=>>>>>>>><52>><52>>>>>>>>=....",
"....;>>>>>>>>><52<52>>>>>>>>>-....",
"....:>>>>>>>>>>1551>>>>>>>>>>:....",
"....:>>>>>>>>>>1551>>>>>>>>>>:....",
"....;>>>>>>>>><52<52>>>>>>>>>-....",
"....=>>>>>>>><52>><52>>>>>>>>=....",
"....$>>>>>>>,31>>>>14,>>>>>>>#....",
"....X>>>>>>>>,>>>>>>,>>>>>>>>X....",
".....=>>>>>>>>>>>>>>>>>>>>>>=.....",
".....O>>>>>>>>>>>>>>>>>>>>>>+.....",
"......*>>>>>>>>>>>>>>>>>>>>&......",
".......*>>>>>>>>>>>>>>>>>>=.......",
"....... =>>>>>>>>>>>>>>>>= .......",
".........*>>>>>>>>>>>>>>&.........",
"..........@&>>>>>>>>>>=O..........",
"............X%=-::==#X............"
};
