/* XPM */
static char *maximize_inactive[] = {
/* columns rows colors chars-per-pixel */
"34 26 18 1 ",
"  c #98C5A4",
". c #98C6A4",
"X c #99C6A4",
"o c #99C7A4",
"O c #99C6A5",
"+ c #99C7A5",
"@ c #9AC7A5",
"# c #9BC7A7",
"$ c #9BC8A6",
"% c #9BC8A7",
"& c #9CC8A7",
"* c #9DC8A8",
"= c #9DC9A8",
"- c #9EC9A9",
"; c #9ECAA9",
": c #9FC9AA",
"> c #9FCAAA",
", c #E0EEE4",
/* pixels */
"............o$=-::-=$X............",
"..........+*>>>>>>>>>>=+..........",
".........*>>>>>>>>>>>>>>*.........",
"....... *>>>>>>>>>>>>>>>>= .......",
".......=>>>>>>>>>>>>>>>>>>=.......",
"......*>>>>>>>>>>>>>>>>>>>>&......",
".....O>>>>>>>>>>>>>>>>>>>>>>+.....",
".....=>>>>>>>>>>>>>>>>>>>>>>=.....",
"....X>>>>>>>>>>>>>>>>>>>>>>>>X....",
"....$>>>>>>>>,,,,,,,,>>>>>>>>%....",
"....=>>>>>>>>,>>>>>>,>>>>>>>>=....",
"....;>>>>>>>>,>>>>>>,>>>>>>>>-....",
"....:>>>>>>>>,>>>>>>,>>>>>>>>:....",
"....:>>>>>>>>,>>>>>>,>>>>>>>>:....",
"....;>>>>>>>>,>>>>>>,>>>>>>>>-....",
"....=>>>>>>>>,>>>>>>,>>>>>>>>=....",
"....$>>>>>>>>,,,,,,,,>>>>>>>>#....",
"....X>>>>>>>>>>>>>>>>>>>>>>>>X....",
".....=>>>>>>>>>>>>>>>>>>>>>>=.....",
".....O>>>>>>>>>>>>>>>>>>>>>>+.....",
"......*>>>>>>>>>>>>>>>>>>>>&......",
".......*>>>>>>>>>>>>>>>>>>=.......",
"....... =>>>>>>>>>>>>>>>>= .......",
".........*>>>>>>>>>>>>>>&.........",
"..........@&>>>>>>>>>>=O..........",
"............X%=-::==#X............"
};
